X: 31251
T: COTILLION No. 21. WOONSOCKET SETT tune 5
C:
%R: reel
B: Elias Howe "The Musician's Companion" Part 3 1844 p.125 #1
S: http://imslp.org/wiki/The_Musician's_Companion_(Howe,_Elias)
Z: 2015 John Chambers <jc:trillian.mit.edu>
M: 2/4
L: 1/16
K: C
% - - - - - - - - - - - - - - - - - - - - - - - - - - - - -
(ge) |\
c2c2 BcdB | cBcd c2(af) | d2d2 dedc | BcdB .G2FE |\
F2d2d2c2 | E2c2c2A2 | B2c2 dced | (cB)(cA) G2 H:|
EF |\
GFEF .G2GE | FEDE F2FD | ECEG cGEC | DCDE .D2ED |\
.C2.c2.G2.e2 | c2g2g2 (fe) | d2ed cBAB | (cB)(cd) "^D.C"c2 :|
% - - - - - - - - - - Dance description - - - - - - - - - -
%%begintext align
%% All chassa across,
%% all promenade,
%% first 4 right and left,
%% balance.
%% Sides the same.
%%endtext
% - - - - - - - - - - - - - - - - - - - - - - - - - - - - -
%%sep 1 1 300
